packages/icons/raw/imported/ShopCard.svg

<svg width="32" height="32" viewBox="0 0 32 32" fill="none" xmlns="http://www.w3.org/2000/svg">
<path d="M6.5 12H6H6.5ZM6.5 20H7H6.5ZM21.5 24V24.5V24ZM10.5 24V24.5V24ZM25.5 12H25H25.5ZM25.5 20H26H25.5ZM21.5 8.00002L21.5 7.50002L21.5 8.00002ZM10.5 8L10.5 7.5L10.5 8ZM7.23079 11.8636C6.95464 11.8636 6.73079 12.0875 6.73079 12.3636C6.73079 12.6398 6.95464 12.8636 7.23079 12.8636V11.8636ZM24.7692 12.8636C25.0454 12.8636 25.2692 12.6398 25.2692 12.3636C25.2692 12.0875 25.0454 11.8636 24.7692 11.8636V12.8636ZM7.23079 16.2274C6.95464 16.2274 6.73079 16.4512 6.73079 16.7274C6.73079 17.0035 6.95464 17.2274 7.23079 17.2274V16.2274ZM24.7692 17.2274C25.0454 17.2274 25.2692 17.0035 25.2692 16.7274C25.2692 16.4512 25.0454 16.2274 24.7692 16.2274V17.2274ZM6 12L6 20H7L7 12H6ZM21.5 23.5H10.5V24.5H21.5V23.5ZM25 12V20H26V12H25ZM21.5 7.50002L10.5 7.5L10.5 8.5L21.5 8.50002L21.5 7.50002ZM26 12C26 9.51474 23.9853 7.50003 21.5 7.50002L21.5 8.50002C23.433 8.50002 25 10.067 25 12H26ZM7 12C7 10.067 8.56701 8.5 10.5 8.5L10.5 7.5C8.01472 7.5 6 9.51472 6 12H7ZM6 20C6 22.4853 8.01472 24.5 10.5 24.5V23.5C8.567 23.5 7 21.933 7 20H6ZM21.5 24.5C23.9853 24.5 26 22.4853 26 20H25C25 21.933 23.433 23.5 21.5 23.5V24.5ZM7.23079 12.8636H24.7692V11.8636H7.23079V12.8636ZM7.23079 17.2274H24.7692V16.2274H7.23079V17.2274Z" fill="black"/>
</svg>

<svg width="32" height="32" fill="none" xmlns="http://www.w3.org/2000/svg"><path d="M6.5 12H6h.5Zm0 8H7h-.5Zm15 4v.5-.5Zm-11 0v.5-.5Zm15-12H25h.5Zm0 8h.5-.5Zm-4-12v-.5.5Zm-11 0v-.5.5Zm-3.27 3.864a.5.5 0 0 0 0 1v-1Zm17.54 1a.5.5 0 1 0 0-1v1ZM7.23 16.227a.5.5 0 1 0 0 1v-1Zm17.54 1a.5.5 0 1 0 0-1v1ZM6 12v8h1v-8H6Zm15.5 11.5h-11v1h11v-1ZM25 12v8h1v-8h-1Zm-3.5-4.5h-11v1h11v-1ZM26 12a4.5 4.5 0 0 0-4.5-4.5v1A3.5 3.5 0 0 1 25 12h1ZM7 12a3.5 3.5 0 0 1 3.5-3.5v-1A4.5 4.5 0 0 0 6 12h1Zm-1 8a4.5 4.5 0 0 0 4.5 4.5v-1A3.5 3.5 0 0 1 7 20H6Zm15.5 4.5A4.5 4.5 0 0 0 26 20h-1a3.5 3.5 0 0 1-3.5 3.5v1ZM7.23 12.864h17.54v-1H7.23v1Zm0 4.363h17.54v-1H7.23v1Z" fill="#000"/></svg>
